svgs/light/stocking.svg

<svg xmlns="http://www.w3.org/2000/svg" viewBox="0 0 384 512"><!-- Font Awesome Pro 6.0.0-alpha2 by @fontawesome - https://fontawesome.com License - https://fontawesome.com/license (Commercial License) --><path d="M336.049 160H335.924C327.119 160 319.981 167.135 319.981 175.938V302.875H320.106C320.106 345.75 298.85 385.625 263.088 409.375L181.314 463.875C165.434 474.5 147.055 480 128.174 480C95.914 480 65.904 464 48.148 437.25C33.895 415.875 28.768 390.25 33.77 365.125S53.275 318.25 74.781 304.125L113.793 278.125L127.924 268.625V175.938C127.924 167.135 120.785 160 111.98 160S96.039 167.135 96.039 175.938V251.5L57.027 277.5C-1.74 316.75 -17.746 396.25 21.516 455C46.273 492 86.785 512 128.174 512C152.555 512 177.313 505 199.07 490.5L280.844 436C325.357 406.25 351.99 356.5 351.99 302.875V175.938C351.99 167.135 344.854 160 336.049 160ZM335.986 0H112.043C85.525 0 64.029 21.49 64.029 48V80C64.029 106.51 85.525 128 112.043 128H335.986C362.504 128 384 106.51 384 80V48C384 21.49 362.504 0 335.986 0ZM352.115 80C352.115 88.836 344.949 96 336.111 96H112.043C103.203 96 96.039 88.836 96.039 80V48C96.039 39.162 103.203 32 112.043 32H336.111C344.949 32 352.115 39.162 352.115 48V80Z"/></svg>

<svg xmlns="http://www.w3.org/2000/svg" viewBox="0 0 384 512"><!--! Font Awesome Pro 6.3.0 by @fontawesome - https://fontawesome.com License - https://fontawesome.com/license (Commercial License) Copyright 2023 Fonticons, Inc. --><path d="M336 160c-8.805 0-16.07 7.135-16.07 15.94v126.9c0 42.88-21.13 82.75-56.89 106.5l-81.77 54.5C165.4 474.5 147.1 480 128.2 480c-32.26 0-62.27-16-80.03-42.75c-14.25-21.38-19.38-47-14.38-72.13s19.51-46.88 41.01-61l53.14-35.5V175.9C127.9 167.1 120.8 160 111.1 160S96.04 167.1 96.04 175.9L96.02 251.5l-39.01 26c-58.77 39.25-74.77 118.8-35.5 177.5C46.27 492 86.76 512 128.2 512c24.38 0 49.13-7 70.89-21.5L280.8 436c44.51-29.75 71.14-79.5 71.14-133.1l.0548-126.9C351.1 167.1 344.9 160 336 160zM335.1 0h-223.9C85.53 0 64.03 21.49 64.03 48l-.0049 32c0 26.51 21.5 48 48.02 48h223.9C362.5 128 384 106.5 384 80v-32C384 21.49 362.5 0 335.1 0zM352.1 80c0 8.836-7.166 16-16 16H112C103.2 96 96.04 88.84 96.04 80v-32c0-8.838 7.164-16 16-16h224.1c8.838 0 16 7.162 16 16V80z"/></svg>
